app/assets/images/heroicons/solid/document-currency-dollar.svg

<svg width="24" height="24" viewBox="0 0 24 24" fill="none" xmlns="http://www.w3.org/2000/svg">
<path fill-rule="evenodd" clip-rule="evenodd" d="M3.75 3.375C3.75 2.33947 4.58947 1.5 5.625 1.5H9C11.0711 1.5 12.75 3.17893 12.75 5.25V7.125C12.75 8.16053 13.5895 9 14.625 9H16.5C18.5711 9 20.25 10.6789 20.25 12.75V20.625C20.25 21.6605 19.4105 22.5 18.375 22.5H5.625C4.58947 22.5 3.75 21.6605 3.75 20.625V3.375ZM14.25 5.25C14.25 3.93695 13.768 2.73648 12.9712 1.8159C16.3701 2.70377 19.0462 5.37988 19.9341 8.77881C19.0135 7.98204 17.8131 7.5 16.5 7.5H14.625C14.4179 7.5 14.25 7.33211 14.25 7.125V5.25ZM12 10.5C12.4142 10.5 12.75 10.8358 12.75 11.25V11.2784C13.3275 11.3224 13.8914 11.4167 14.4371 11.5572C14.8383 11.6605 15.0798 12.0693 14.9765 12.4705C14.8733 12.8716 14.4644 13.1131 14.0632 13.0099C13.6381 12.9004 13.1995 12.824 12.75 12.7836V14.4642L13.7185 14.7962C14.3886 15.0259 15.0002 15.6451 15.0002 16.5C15.0002 16.6576 14.9932 16.8137 14.9795 16.9681C14.8971 17.8995 14.1491 18.5498 13.3111 18.6625C13.1256 18.6875 12.9385 18.7072 12.75 18.7216V18.75C12.75 19.1642 12.4142 19.5 12 19.5C11.5858 19.5 11.25 19.1642 11.25 18.75V18.7215C10.6726 18.6776 10.1089 18.5832 9.56324 18.4428C9.1621 18.3395 8.92061 17.9307 9.02385 17.5295C9.1271 17.1284 9.53599 16.8869 9.93713 16.9901C10.3621 17.0995 10.8007 17.1759 11.25 17.2164V15.5357L10.2819 15.2038C9.61175 14.9741 9.00018 14.3549 9.00018 13.5C9.00018 13.3424 9.00715 13.1863 9.02081 13.0319C9.10326 12.1005 9.85121 11.4502 10.6893 11.3375C10.8746 11.3125 11.0616 11.2928 11.25 11.2785V11.25C11.25 10.8358 11.5858 10.5 12 10.5ZM10.8892 12.8241C11.0086 12.808 11.1289 12.7945 11.25 12.7836V13.95L10.7683 13.7849C10.5602 13.7135 10.5002 13.5736 10.5002 13.5C10.5002 13.3866 10.5052 13.2746 10.515 13.1641C10.5279 13.0184 10.6555 12.8555 10.8892 12.8241ZM12.75 17.2164V16.0499L13.232 16.2151C13.4402 16.2865 13.5002 16.4264 13.5002 16.5C13.5002 16.6134 13.4952 16.7254 13.4854 16.8359C13.4725 16.9816 13.3448 17.1445 13.1112 17.1759C12.9916 17.192 12.8712 17.2055 12.75 17.2164Z" fill="black"/>
</svg>

<svg xmlns="http://www.w3.org/2000/svg" viewBox="0 0 24 24" fill="currentColor" aria-hidden="true" data-slot="icon">
  <path fill-rule="evenodd" d="M3.75 3.375c0-1.036.84-1.875 1.875-1.875H9a3.75 3.75 0 0 1 3.75 3.75v1.875c0 1.036.84 1.875 1.875 1.875H16.5a3.75 3.75 0 0 1 3.75 3.75v7.875c0 1.035-.84 1.875-1.875 1.875H5.625a1.875 1.875 0 0 1-1.875-1.875V3.375Zm10.5 1.875a5.23 5.23 0 0 0-1.279-3.434 9.768 9.768 0 0 1 6.963 6.963A5.23 5.23 0 0 0 16.5 7.5h-1.875a.375.375 0 0 1-.375-.375V5.25ZM12 10.5a.75.75 0 0 1 .75.75v.028a9.727 9.727 0 0 1 1.687.28.75.75 0 1 1-.374 1.452 8.207 8.207 0 0 0-1.313-.226v1.68l.969.332c.67.23 1.281.85 1.281 1.704 0 .158-.007.314-.02.468-.083.931-.83 1.582-1.669 1.695a9.776 9.776 0 0 1-.561.059v.028a.75.75 0 0 1-1.5 0v-.029a9.724 9.724 0 0 1-1.687-.278.75.75 0 0 1 .374-1.453c.425.11.864.186 1.313.226v-1.68l-.968-.332C9.612 14.974 9 14.354 9 13.5c0-.158.007-.314.02-.468.083-.931.831-1.582 1.67-1.694.185-.025.372-.045.56-.06v-.028a.75.75 0 0 1 .75-.75Zm-1.11 2.324c.119-.016.239-.03.36-.04v1.166l-.482-.165c-.208-.072-.268-.211-.268-.285 0-.113.005-.225.015-.336.013-.146.14-.309.374-.34Zm1.86 4.392V16.05l.482.165c.208.072.268.211.268.285 0 .113-.005.225-.015.336-.012.146-.14.309-.374.34-.12.016-.24.03-.361.04Z" clip-rule="evenodd"/>
</svg>
